src/assets/footer-logo-white.svg

<svg width="621" height="344" viewBox="0 0 621 344" fill="none" xmlns="http://www.w3.org/2000/svg">
<path fill-rule="evenodd" clip-rule="evenodd" d="M443.265 123.808C463.225 94.9077 498.664 78.8963 535.432 85.636C584.29 94.5918 616.972 140.816 609.902 189.995C609.659 191.343 609.656 192.522 609.4 193.605C609.254 194.226 608.664 194.597 608.031 194.597L477.475 194.607C476.434 194.607 475.665 195.587 475.954 196.595C480.206 211.422 492.344 224.041 509.844 227.249C538.314 232.468 561.628 216.303 567.423 208.57C567.954 207.861 568.919 207.574 569.698 207.99L602.208 225.358C603.032 225.798 603.329 226.82 602.796 227.59C595.458 238.196 560.509 278.964 502.424 268.317C467.275 261.874 435.867 232.709 428.62 194.438C426.257 183.398 426.195 171.683 428.242 160.354C429.778 151.851 432.404 143.838 435.948 136.432L354.284 226.073C353.335 227.114 354.069 228.795 355.472 228.795H441.534C442.424 228.795 443.146 229.522 443.146 230.419V267.474C443.146 268.371 442.424 269.098 441.534 269.098H298.754C297.864 269.098 297.142 268.371 297.142 267.474V230.856C297.142 230.456 297.289 230.069 297.554 229.772L385.394 131.108C386.325 130.062 385.589 128.4 384.194 128.4H298.873C297.983 128.4 297.261 127.673 297.261 126.776V89.3581C297.261 88.4613 297.983 87.7342 298.873 87.7342H441.653C442.544 87.7342 443.265 88.4613 443.265 89.3581V123.808ZM522.515 124.965C503.63 122.966 484.711 135.226 477.39 153.635L476.146 156.91C475.743 157.971 476.518 159.11 477.646 159.114L560.616 159.403C561.693 159.406 562.471 158.365 562.122 157.338C556.18 139.812 540.414 126.486 522.515 124.965Z" fill="white"/>
<path d="M237.516 38.4352C238.407 38.4352 239.129 39.1623 239.129 40.0591V86.1106C239.129 87.0074 239.85 87.7345 240.741 87.7345H282.175C283.065 87.7346 283.787 88.4616 283.787 89.3585V126.774C283.787 127.67 283.065 128.397 282.175 128.397H240.741C239.85 128.397 239.129 129.124 239.129 130.021V206.125C239.129 214.281 240.915 219.919 244.488 223.038C248.06 226.156 254.134 227.716 262.708 227.716H284.676C285.566 227.716 286.288 228.443 286.288 229.339V267.474C286.288 268.371 285.566 269.098 284.676 269.098H253.777C241.153 269.098 230.078 267.179 220.551 263.34C211.262 259.262 203.997 252.665 198.757 243.549C193.517 234.193 190.897 221.478 190.897 205.405V40.0591C190.897 39.1623 191.619 38.4352 192.509 38.4352H237.516Z" fill="white"/>
<path d="M114.854 10C115.745 10.0001 116.466 10.7272 116.466 11.624L116.467 49.7588C116.467 50.6557 115.745 51.3827 114.854 51.3828H103.962C96.5784 51.3828 91.2193 52.9422 87.8848 56.0609C84.5503 58.9397 82.883 63.9776 82.883 71.1745V86.1034C82.883 87.0003 83.6049 87.7274 84.4954 87.7274H170.426C171.316 87.7274 172.038 88.4545 172.038 89.3514V267.467C172.038 268.364 171.316 269.091 170.426 269.091L125.419 269.091C124.528 269.091 123.807 268.364 123.807 267.467V130.014C123.807 129.117 123.085 128.39 122.194 128.39H84.4954C83.6049 128.39 82.883 129.117 82.883 130.014V267.467C82.883 268.364 82.1611 269.091 81.2707 269.091H36.264C35.3736 269.091 34.6517 268.364 34.6516 267.467V130.014C34.6516 129.117 33.9297 128.39 33.0393 128.39H11.6123C10.7219 128.39 10 127.663 10 126.766V89.3514C10 88.4545 10.7219 87.7274 11.6123 87.7274H33.0393C33.9297 87.7274 34.6516 87.0003 34.6516 86.1034V71.5342C34.6516 56.4206 37.1525 44.4256 42.1543 35.5494C47.1561 26.6731 54.3017 20.1957 63.5907 16.1174C73.1178 12.0392 84.1933 10 96.8168 10H114.854Z" fill="white"/>
<path d="M56.8394 298.526V314.075H54.7946V302.48L49.6265 314.075H48.1885L42.9979 302.458V314.075H40.9531V298.526H43.1552L48.9075 311.378L54.6598 298.526H56.8394ZM65.6774 314.277C64.524 314.277 63.4754 314.015 62.5317 313.49C61.6029 312.966 60.8689 312.225 60.3296 311.266C59.8053 310.292 59.5432 309.169 59.5432 307.895C59.5432 306.637 59.8128 305.529 60.3521 304.57C60.9063 303.596 61.6553 302.855 62.5991 302.345C63.5428 301.821 64.5989 301.559 65.7673 301.559C66.9358 301.559 67.9919 301.821 68.9356 302.345C69.8793 302.855 70.6208 303.589 71.1601 304.547C71.7144 305.506 71.9915 306.622 71.9915 307.895C71.9915 309.169 71.7069 310.292 71.1376 311.266C70.5834 312.225 69.8269 312.966 68.8682 313.49C67.9095 314.015 66.8459 314.277 65.6774 314.277ZM65.6774 312.479C66.4115 312.479 67.1005 312.307 67.7447 311.963C68.3888 311.618 68.9056 311.101 69.2951 310.412C69.6996 309.723 69.9018 308.884 69.9018 307.895C69.9018 306.907 69.7071 306.068 69.3176 305.379C68.9281 304.69 68.4188 304.18 67.7896 303.851C67.1605 303.506 66.4789 303.334 65.7449 303.334C64.9959 303.334 64.3068 303.506 63.6776 303.851C63.0634 304.18 62.5691 304.69 62.1946 305.379C61.8201 306.068 61.6329 306.907 61.6329 307.895C61.6329 308.899 61.8126 309.745 62.1721 310.435C62.5466 311.124 63.041 311.64 63.6552 311.985C64.2693 312.315 64.9434 312.479 65.6774 312.479ZM79.2639 312.187L83.0838 301.761H85.2633L80.4323 314.075H78.0505L73.2194 301.761H75.4215L79.2639 312.187ZM98.5104 307.446C98.5104 307.836 98.488 308.248 98.443 308.682H88.6012C88.6761 309.895 89.088 310.847 89.837 311.536C90.601 312.21 91.5223 312.547 92.6008 312.547C93.4846 312.547 94.2187 312.345 94.8029 311.94C95.4021 311.521 95.8215 310.966 96.0612 310.277H98.2633C97.9337 311.461 97.2746 312.427 96.2859 313.176C95.2972 313.91 94.0689 314.277 92.6008 314.277C91.4324 314.277 90.3838 314.015 89.455 313.49C88.5413 312.966 87.8222 312.225 87.2979 311.266C86.7736 310.292 86.5115 309.169 86.5115 307.895C86.5115 306.622 86.7661 305.506 87.2755 304.547C87.7848 303.589 88.4963 302.855 89.4101 302.345C90.3389 301.821 91.4024 301.559 92.6008 301.559C93.7693 301.559 94.8029 301.814 95.7017 302.323C96.6005 302.832 97.2896 303.536 97.7689 304.435C98.2633 305.319 98.5104 306.323 98.5104 307.446ZM96.3982 307.019C96.3982 306.24 96.226 305.574 95.8814 305.019C95.5369 304.45 95.065 304.023 94.4658 303.739C93.8816 303.439 93.23 303.289 92.5109 303.289C91.4773 303.289 90.5935 303.619 89.8595 304.278C89.1405 304.937 88.7285 305.851 88.6236 307.019H96.3982ZM116.017 301.536C116.976 301.536 117.83 301.739 118.579 302.143C119.328 302.533 119.919 303.124 120.354 303.918C120.788 304.712 121.005 305.678 121.005 306.817V314.075H118.983V307.109C118.983 305.881 118.676 304.944 118.062 304.3C117.463 303.641 116.646 303.312 115.613 303.312C114.549 303.312 113.703 303.656 113.074 304.345C112.444 305.019 112.13 306.001 112.13 307.289V314.075H110.108V307.109C110.108 305.881 109.8 304.944 109.186 304.3C108.587 303.641 107.771 303.312 106.737 303.312C105.673 303.312 104.827 303.656 104.198 304.345C103.569 305.019 103.254 306.001 103.254 307.289V314.075H101.209V301.761H103.254V303.536C103.659 302.892 104.198 302.398 104.872 302.053C105.561 301.709 106.318 301.536 107.142 301.536C108.175 301.536 109.089 301.769 109.883 302.233C110.677 302.697 111.268 303.379 111.658 304.278C112.003 303.409 112.572 302.735 113.366 302.256C114.16 301.776 115.043 301.536 116.017 301.536ZM135.595 307.446C135.595 307.836 135.572 308.248 135.527 308.682H125.685C125.76 309.895 126.172 310.847 126.921 311.536C127.685 312.21 128.606 312.547 129.685 312.547C130.569 312.547 131.303 312.345 131.887 311.94C132.486 311.521 132.906 310.966 133.145 310.277H135.347C135.018 311.461 134.359 312.427 133.37 313.176C132.381 313.91 131.153 314.277 129.685 314.277C128.517 314.277 127.468 314.015 126.539 313.49C125.625 312.966 124.906 312.225 124.382 311.266C123.858 310.292 123.596 309.169 123.596 307.895C123.596 306.622 123.85 305.506 124.36 304.547C124.869 303.589 125.581 302.855 126.494 302.345C127.423 301.821 128.487 301.559 129.685 301.559C130.853 301.559 131.887 301.814 132.786 302.323C133.685 302.832 134.374 303.536 134.853 304.435C135.347 305.319 135.595 306.323 135.595 307.446ZM133.482 307.019C133.482 306.24 133.31 305.574 132.966 305.019C132.621 304.45 132.149 304.023 131.55 303.739C130.966 303.439 130.314 303.289 129.595 303.289C128.562 303.289 127.678 303.619 126.944 304.278C126.225 304.937 125.813 305.851 125.708 307.019H133.482ZM144.293 301.536C145.791 301.536 147.004 301.993 147.933 302.907C148.862 303.806 149.326 305.109 149.326 306.817V314.075H147.304V307.109C147.304 305.881 146.997 304.944 146.383 304.3C145.769 303.641 144.93 303.312 143.866 303.312C142.788 303.312 141.926 303.649 141.282 304.323C140.653 304.997 140.338 305.978 140.338 307.266V314.075H138.294V301.761H140.338V303.514C140.743 302.885 141.29 302.398 141.979 302.053C142.683 301.709 143.454 301.536 144.293 301.536ZM155.161 303.446V310.704C155.161 311.303 155.288 311.73 155.543 311.985C155.797 312.225 156.239 312.345 156.868 312.345H158.374V314.075H156.531C155.393 314.075 154.539 313.813 153.97 313.288C153.401 312.764 153.116 311.903 153.116 310.704V303.446H151.521V301.761H153.116V298.66H155.161V301.761H158.374V303.446H155.161ZM161.503 314.21C161.113 314.21 160.784 314.075 160.514 313.805C160.245 313.535 160.11 313.206 160.11 312.816C160.11 312.427 160.245 312.097 160.514 311.828C160.784 311.558 161.113 311.423 161.503 311.423C161.877 311.423 162.192 311.558 162.447 311.828C162.716 312.097 162.851 312.427 162.851 312.816C162.851 313.206 162.716 313.535 162.447 313.805C162.192 314.075 161.877 314.21 161.503 314.21ZM179.469 314.075L176.009 307.963H174.526V314.075H171.38V298.391H177.267C178.48 298.391 179.514 298.608 180.368 299.042C181.222 299.462 181.858 300.038 182.278 300.773C182.712 301.492 182.929 302.3 182.929 303.199C182.929 304.233 182.63 305.169 182.031 306.008C181.431 306.832 180.54 307.401 179.357 307.716L183.109 314.075H179.469ZM174.526 305.604H177.155C178.009 305.604 178.645 305.401 179.065 304.997C179.484 304.577 179.694 304.001 179.694 303.267C179.694 302.548 179.484 301.993 179.065 301.604C178.645 301.199 178.009 300.997 177.155 300.997H174.526V305.604ZM197.347 307.581C197.347 308.03 197.317 308.435 197.257 308.794H188.157C188.231 309.693 188.546 310.397 189.1 310.906C189.655 311.416 190.336 311.67 191.145 311.67C192.313 311.67 193.145 311.169 193.639 310.165H197.032C196.673 311.363 195.984 312.352 194.965 313.131C193.946 313.895 192.695 314.277 191.212 314.277C190.014 314.277 188.936 314.015 187.977 313.49C187.033 312.951 186.292 312.195 185.752 311.221C185.228 310.247 184.966 309.124 184.966 307.851C184.966 306.562 185.228 305.431 185.752 304.458C186.277 303.484 187.011 302.735 187.954 302.211C188.898 301.686 189.984 301.424 191.212 301.424C192.396 301.424 193.452 301.679 194.381 302.188C195.324 302.697 196.051 303.424 196.56 304.368C197.085 305.296 197.347 306.368 197.347 307.581ZM194.089 306.682C194.074 305.873 193.782 305.229 193.212 304.75C192.643 304.255 191.946 304.008 191.123 304.008C190.344 304.008 189.685 304.248 189.145 304.727C188.621 305.192 188.299 305.843 188.179 306.682H194.089ZM216.9 301.626L213.26 314.075H209.867L207.597 305.379L205.328 314.075H201.912L198.25 301.626H201.44L203.643 311.109L206.024 301.626H209.35L211.687 311.086L213.889 301.626H216.9ZM217.793 307.806C217.793 306.547 218.04 305.431 218.534 304.458C219.044 303.484 219.725 302.735 220.579 302.211C221.448 301.686 222.414 301.424 223.478 301.424C224.407 301.424 225.216 301.611 225.905 301.986C226.609 302.36 227.17 302.832 227.59 303.401V301.626H230.758V314.075H227.59V312.255C227.185 312.839 226.624 313.326 225.905 313.715C225.201 314.09 224.384 314.277 223.455 314.277C222.407 314.277 221.448 314.007 220.579 313.468C219.725 312.929 219.044 312.172 218.534 311.199C218.04 310.21 217.793 309.079 217.793 307.806ZM227.59 307.851C227.59 307.087 227.44 306.435 227.14 305.896C226.841 305.341 226.436 304.922 225.927 304.637C225.418 304.338 224.871 304.188 224.287 304.188C223.703 304.188 223.163 304.33 222.669 304.615C222.175 304.899 221.77 305.319 221.456 305.873C221.156 306.412 221.006 307.057 221.006 307.806C221.006 308.555 221.156 309.214 221.456 309.783C221.77 310.337 222.175 310.764 222.669 311.064C223.178 311.363 223.718 311.513 224.287 311.513C224.871 311.513 225.418 311.371 225.927 311.086C226.436 310.787 226.841 310.367 227.14 309.828C227.44 309.274 227.59 308.615 227.59 307.851ZM236.976 303.559C237.381 302.9 237.905 302.383 238.549 302.008C239.208 301.634 239.957 301.447 240.796 301.447V304.75H239.965C238.976 304.75 238.227 304.982 237.718 305.446C237.224 305.911 236.976 306.72 236.976 307.873V314.075H233.831V301.626H236.976V303.559ZM242.106 307.806C242.106 306.547 242.353 305.431 242.848 304.458C243.357 303.484 244.046 302.735 244.915 302.211C245.784 301.686 246.75 301.424 247.814 301.424C248.622 301.424 249.394 301.604 250.128 301.963C250.862 302.308 251.446 302.772 251.881 303.357V297.447H255.071V314.075H251.881V312.232C251.491 312.846 250.944 313.341 250.24 313.715C249.536 314.09 248.72 314.277 247.791 314.277C246.742 314.277 245.784 314.007 244.915 313.468C244.046 312.929 243.357 312.172 242.848 311.199C242.353 310.21 242.106 309.079 242.106 307.806ZM251.903 307.851C251.903 307.087 251.753 306.435 251.454 305.896C251.154 305.341 250.75 304.922 250.24 304.637C249.731 304.338 249.184 304.188 248.6 304.188C248.016 304.188 247.476 304.33 246.982 304.615C246.488 304.899 246.083 305.319 245.769 305.873C245.469 306.412 245.319 307.057 245.319 307.806C245.319 308.555 245.469 309.214 245.769 309.783C246.083 310.337 246.488 310.764 246.982 311.064C247.491 311.363 248.031 311.513 248.6 311.513C249.184 311.513 249.731 311.371 250.24 311.086C250.75 310.787 251.154 310.367 251.454 309.828C251.753 309.274 251.903 308.615 251.903 307.851ZM269.716 307.581C269.716 308.03 269.686 308.435 269.626 308.794H260.526C260.6 309.693 260.915 310.397 261.469 310.906C262.024 311.416 262.705 311.67 263.514 311.67C264.683 311.67 265.514 311.169 266.008 310.165H269.401C269.042 311.363 268.353 312.352 267.334 313.131C266.315 313.895 265.064 314.277 263.581 314.277C262.383 314.277 261.305 314.015 260.346 313.49C259.402 312.951 258.661 312.195 258.121 311.221C257.597 310.247 257.335 309.124 257.335 307.851C257.335 306.562 257.597 305.431 258.121 304.458C258.646 303.484 259.38 302.735 260.323 302.211C261.267 301.686 262.353 301.424 263.581 301.424C264.765 301.424 265.821 301.679 266.75 302.188C267.693 302.697 268.42 303.424 268.929 304.368C269.454 305.296 269.716 306.368 269.716 307.581ZM266.458 306.682C266.443 305.873 266.151 305.229 265.581 304.75C265.012 304.255 264.315 304.008 263.492 304.008C262.713 304.008 262.054 304.248 261.514 304.727C260.99 305.192 260.668 305.843 260.548 306.682H266.458ZM271.203 307.806C271.203 306.547 271.45 305.431 271.945 304.458C272.454 303.484 273.143 302.735 274.012 302.211C274.881 301.686 275.847 301.424 276.91 301.424C277.719 301.424 278.491 301.604 279.225 301.963C279.959 302.308 280.543 302.772 280.977 303.357V297.447H284.168V314.075H280.977V312.232C280.588 312.846 280.041 313.341 279.337 313.715C278.633 314.09 277.817 314.277 276.888 314.277C275.839 314.277 274.881 314.007 274.012 313.468C273.143 312.929 272.454 312.172 271.945 311.199C271.45 310.21 271.203 309.079 271.203 307.806ZM281 307.851C281 307.087 280.85 306.435 280.55 305.896C280.251 305.341 279.846 304.922 279.337 304.637C278.828 304.338 278.281 304.188 277.697 304.188C277.113 304.188 276.573 304.33 276.079 304.615C275.585 304.899 275.18 305.319 274.866 305.873C274.566 306.412 274.416 307.057 274.416 307.806C274.416 308.555 274.566 309.214 274.866 309.783C275.18 310.337 275.585 310.764 276.079 311.064C276.588 311.363 277.128 311.513 277.697 311.513C278.281 311.513 278.828 311.371 279.337 311.086C279.846 310.787 280.251 310.367 280.55 309.828C280.85 309.274 281 308.615 281 307.851ZM288.634 314.232C288.064 314.232 287.593 314.06 287.218 313.715C286.859 313.356 286.679 312.914 286.679 312.389C286.679 311.865 286.859 311.431 287.218 311.086C287.593 310.727 288.064 310.547 288.634 310.547C289.188 310.547 289.645 310.727 290.004 311.086C290.364 311.431 290.544 311.865 290.544 312.389C290.544 312.914 290.364 313.356 290.004 313.715C289.645 314.06 289.188 314.232 288.634 314.232Z" fill="white"/>
</svg>

<svg xmlns="http://www.w3.org/2000/svg" width="621" height="344" fill="none" viewBox="0 0 621 344"><path fill="#fff" fill-rule="evenodd" d="M443.265 123.808c19.96-28.9 55.399-44.912 92.167-38.172 48.858 8.956 81.54 55.18 74.47 104.359-.243 1.348-.246 2.527-.502 3.61-.146.621-.736.992-1.369.992l-130.556.01c-1.041 0-1.81.98-1.521 1.988 4.252 14.827 16.39 27.446 33.89 30.654 28.47 5.219 51.784-10.946 57.579-18.679.531-.709 1.496-.996 2.275-.58l32.51 17.368c.824.44 1.121 1.462.588 2.232-7.338 10.606-42.287 51.374-100.372 40.727-35.149-6.443-66.557-35.608-73.804-73.879-2.363-11.04-2.425-22.755-.378-34.084a94 94 0 0 1 7.706-23.922l-81.664 89.641c-.949 1.041-.215 2.722 1.188 2.722h86.062c.89 0 1.612.727 1.612 1.624v37.055c0 .897-.722 1.624-1.612 1.624h-142.78c-.89 0-1.612-.727-1.612-1.624v-36.618c0-.4.147-.787.412-1.084l87.84-98.664c.931-1.046.195-2.708-1.2-2.708h-85.321c-.89 0-1.612-.727-1.612-1.624V89.358c0-.897.722-1.624 1.612-1.624h142.78c.891 0 1.612.727 1.612 1.624zm79.25 1.157c-18.885-1.999-37.804 10.261-45.125 28.67l-1.244 3.275c-.403 1.061.372 2.2 1.5 2.204l82.97.289c1.077.003 1.855-1.038 1.506-2.065-5.942-17.526-21.708-30.852-39.607-32.373" clip-rule="evenodd"/><path fill="#fff" d="M237.516 38.435c.891 0 1.613.727 1.613 1.624v46.052c0 .896.721 1.623 1.612 1.623h41.434c.89 0 1.612.728 1.612 1.625v37.415c0 .896-.722 1.623-1.612 1.623h-41.434c-.891 0-1.612.727-1.612 1.624v76.104q0 12.234 5.359 16.913 5.359 4.678 18.22 4.678h21.968c.89 0 1.612.727 1.612 1.623v38.135c0 .897-.722 1.624-1.612 1.624h-30.899q-18.936 0-33.226-5.758-13.934-6.117-21.794-19.791-7.86-14.034-7.86-38.144V40.059c0-.897.722-1.624 1.612-1.624zM114.854 10c.891 0 1.612.727 1.612 1.624l.001 38.135c0 .897-.722 1.624-1.613 1.624h-10.892q-11.076 0-16.077 4.678-5.002 4.319-5.002 15.113v14.93c0 .896.722 1.623 1.612 1.623h85.931c.89 0 1.612.727 1.612 1.624v178.116c0 .897-.722 1.624-1.612 1.624h-45.007a1.62 1.62 0 0 1-1.612-1.624V130.014c0-.897-.722-1.624-1.613-1.624H84.495c-.89 0-1.612.727-1.612 1.624v137.453c0 .897-.722 1.624-1.612 1.624H36.264c-.89 0-1.612-.727-1.612-1.624V130.014c0-.897-.722-1.624-1.613-1.624H11.612c-.89 0-1.612-.727-1.612-1.624V89.351c0-.897.722-1.624 1.612-1.624H33.04c.89 0 1.613-.727 1.613-1.624V71.534q0-22.67 7.502-35.985 7.503-13.314 21.437-19.432Q77.88 10 96.817 10zM56.84 298.526v15.549h-2.045V302.48l-5.169 11.595H48.19l-5.191-11.617v11.617h-2.045v-15.549h2.202l5.752 12.852 5.753-12.852zm8.837 15.751q-1.73 0-3.145-.787a5.7 5.7 0 0 1-2.202-2.224q-.787-1.46-.787-3.371 0-1.887.81-3.325.83-1.46 2.246-2.225 1.416-.786 3.168-.786t3.169.786a5.53 5.53 0 0 1 2.224 2.202q.832 1.438.832 3.348t-.854 3.371a5.8 5.8 0 0 1-2.27 2.224q-1.438.787-3.19.787m0-1.798q1.1 0 2.068-.516.966-.517 1.55-1.551.607-1.034.607-2.517t-.584-2.516-1.528-1.528a4.2 4.2 0 0 0-2.045-.517q-1.124 0-2.067.517-.922.494-1.483 1.528-.562 1.034-.562 2.516 0 1.505.54 2.54.561 1.033 1.482 1.55.921.495 2.022.494m13.587-.292 3.82-10.426h2.18l-4.832 12.314H78.05l-4.83-12.314h2.201zm19.246-4.741q0 .585-.067 1.236h-9.842q.112 1.82 1.236 2.854 1.146 1.011 2.764 1.011 1.326 0 2.202-.607a3.3 3.3 0 0 0 1.258-1.663h2.202a5.35 5.35 0 0 1-1.977 2.899q-1.483 1.101-3.685 1.101-1.753 0-3.146-.787a5.6 5.6 0 0 1-2.157-2.224q-.787-1.46-.787-3.371 0-1.91.764-3.348t2.135-2.202q1.393-.786 3.19-.786 1.754 0 3.102.764a5.2 5.2 0 0 1 2.067 2.112q.741 1.326.741 3.011m-2.112-.427q0-1.168-.517-2a3.25 3.25 0 0 0-1.415-1.28 4.2 4.2 0 0 0-1.955-.45q-1.55 0-2.651.989-1.08.989-1.236 2.741zm19.619-5.483q1.439 0 2.562.607 1.123.584 1.775 1.775t.651 2.899v7.258h-2.022v-6.966q0-1.843-.921-2.809-.899-.988-2.449-.988-1.596 0-2.539 1.033-.945 1.012-.944 2.944v6.786h-2.022v-6.966q0-1.843-.922-2.809-.898-.988-2.449-.988-1.596 0-2.539 1.033-.944 1.012-.944 2.944v6.786h-2.045v-12.314h2.045v1.775a4.07 4.07 0 0 1 1.618-1.483 5 5 0 0 1 2.27-.517q1.55 0 2.741.697 1.19.696 1.775 2.045a4.04 4.04 0 0 1 1.708-2.022q1.19-.72 2.651-.72m19.578 5.91q0 .585-.068 1.236h-9.842q.112 1.82 1.236 2.854 1.146 1.011 2.764 1.011 1.326 0 2.202-.607a3.3 3.3 0 0 0 1.258-1.663h2.202a5.34 5.34 0 0 1-1.977 2.899q-1.483 1.101-3.685 1.101-1.752 0-3.146-.787a5.6 5.6 0 0 1-2.157-2.224q-.786-1.46-.786-3.371 0-1.91.764-3.348a5.3 5.3 0 0 1 2.134-2.202q1.394-.786 3.191-.786 1.752 0 3.101.764a5.2 5.2 0 0 1 2.067 2.112q.741 1.326.742 3.011m-2.113-.427q0-1.168-.516-2a3.25 3.25 0 0 0-1.416-1.28 4.2 4.2 0 0 0-1.955-.45q-1.55 0-2.651.989-1.079.989-1.236 2.741zm10.811-5.483q2.247 0 3.64 1.371 1.393 1.348 1.393 3.91v7.258h-2.022v-6.966q0-1.843-.921-2.809-.921-.988-2.517-.988-1.618 0-2.584 1.011-.944 1.011-.944 2.943v6.809h-2.044v-12.314h2.044v1.753a4.1 4.1 0 0 1 1.641-1.461 5.2 5.2 0 0 1 2.314-.517m10.868 1.91v7.258q0 .898.382 1.281.381.36 1.325.36h1.506v1.73h-1.843q-1.707 0-2.561-.787-.854-.786-.854-2.584v-7.258h-1.595v-1.685h1.595v-3.101h2.045v3.101h3.213v1.685zm6.342 10.764q-.584 0-.989-.405a1.35 1.35 0 0 1-.404-.989q0-.584.404-.988.405-.405.989-.405.561 0 .944.405.404.404.404.988t-.404.989q-.383.405-.944.405m17.966-.135-3.46-6.112h-1.483v6.112h-3.146v-15.684h5.887q1.82 0 3.101.651 1.28.63 1.91 1.731.651 1.078.651 2.426a4.72 4.72 0 0 1-.898 2.809q-.9 1.236-2.674 1.708l3.752 6.359zm-4.943-8.471h2.629q1.28 0 1.91-.607.629-.63.629-1.73 0-1.079-.629-1.663-.63-.607-1.91-.607h-2.629zm22.821 1.977q0 .674-.09 1.213h-9.1q.112 1.349.943 2.112.832.764 2.045.764 1.753 0 2.494-1.505h3.393q-.539 1.797-2.067 2.966-1.529 1.146-3.753 1.146-1.797 0-3.235-.787a5.8 5.8 0 0 1-2.225-2.269q-.786-1.46-.786-3.37 0-1.934.786-3.393a5.5 5.5 0 0 1 2.202-2.247q1.416-.787 3.258-.787 1.776 0 3.169.764a5.27 5.27 0 0 1 2.179 2.18q.787 1.393.787 3.213m-3.258-.899q-.022-1.214-.877-1.932-.854-.742-2.089-.742-1.168 0-1.978.719-.786.697-.966 1.955zm22.811-5.056-3.64 12.449h-3.393l-2.27-8.696-2.269 8.696h-3.416l-3.662-12.449h3.19l2.203 9.483 2.381-9.483h3.326l2.337 9.46 2.202-9.46zm.893 6.18q0-1.889.741-3.348.764-1.461 2.045-2.247 1.303-.787 2.899-.787 1.394 0 2.427.562 1.055.561 1.685 1.415v-1.775h3.168v12.449h-3.168v-1.82q-.607.876-1.685 1.46-1.056.562-2.45.562a5.35 5.35 0 0 1-2.876-.809q-1.28-.809-2.045-2.269-.741-1.483-.741-3.393m9.797.045q0-1.146-.45-1.955a3.07 3.07 0 0 0-1.213-1.259 3.2 3.2 0 0 0-1.64-.449q-.876 0-1.618.427-.741.427-1.213 1.258-.45.809-.45 1.933t.45 1.977q.471.831 1.213 1.281a3.15 3.15 0 0 0 1.618.449q.876 0 1.64-.427a3.26 3.26 0 0 0 1.213-1.258q.45-.831.45-1.977m9.386-4.292a4.5 4.5 0 0 1 1.573-1.551q.989-.561 2.247-.561v3.303h-.831q-1.484 0-2.247.696-.741.697-.742 2.427v6.202h-3.145v-12.449h3.145zm5.13 4.247q0-1.889.742-3.348.763-1.461 2.067-2.247 1.303-.787 2.899-.787 1.213 0 2.314.539 1.1.517 1.753 1.394v-5.91h3.19v16.628h-3.19v-1.843q-.585.921-1.641 1.483t-2.449.562a5.35 5.35 0 0 1-2.876-.809q-1.303-.809-2.067-2.269-.742-1.483-.742-3.393m9.797.045q0-1.146-.449-1.955a3.07 3.07 0 0 0-1.214-1.259 3.2 3.2 0 0 0-1.64-.449q-.876 0-1.618.427t-1.213 1.258q-.45.809-.45 1.933t.45 1.977q.471.831 1.213 1.281a3.15 3.15 0 0 0 1.618.449q.876 0 1.64-.427.764-.449 1.214-1.258.449-.831.449-1.977m17.813-.27q0 .674-.09 1.213h-9.1q.112 1.349.943 2.112.832.764 2.045.764 1.753 0 2.494-1.505h3.393q-.538 1.797-2.067 2.966-1.529 1.146-3.753 1.146-1.797 0-3.235-.787a5.8 5.8 0 0 1-2.225-2.269q-.786-1.46-.786-3.37 0-1.934.786-3.393a5.5 5.5 0 0 1 2.202-2.247q1.416-.787 3.258-.787 1.776 0 3.169.764a5.27 5.27 0 0 1 2.179 2.18q.787 1.393.787 3.213m-3.258-.899q-.022-1.214-.877-1.932-.854-.742-2.089-.742-1.168 0-1.978.719-.786.697-.966 1.955zm4.745 1.124q0-1.889.742-3.348.764-1.461 2.067-2.247 1.303-.787 2.898-.787 1.214 0 2.315.539 1.101.517 1.752 1.394v-5.91h3.191v16.628h-3.191v-1.843q-.584.921-1.64 1.483t-2.449.562a5.35 5.35 0 0 1-2.876-.809q-1.303-.809-2.067-2.269-.742-1.483-.742-3.393m9.797.045q0-1.146-.45-1.955a3.07 3.07 0 0 0-1.213-1.259 3.2 3.2 0 0 0-1.64-.449q-.877 0-1.618.427t-1.213 1.258q-.45.809-.45 1.933t.45 1.977q.471.831 1.213 1.281a3.15 3.15 0 0 0 1.618.449q.876 0 1.64-.427a3.26 3.26 0 0 0 1.213-1.258q.45-.831.45-1.977m7.634 6.381q-.854 0-1.416-.517a1.8 1.8 0 0 1-.539-1.326q0-.786.539-1.303.562-.539 1.416-.539.831 0 1.37.539.54.517.54 1.303a1.8 1.8 0 0 1-.54 1.326q-.539.517-1.37.517"/></svg>
